X:1
T:Addio mia bella addio
T:Addio mia bella addio
T:note
L:1/8
M:4/4
K:F
V:1 treble nm="Piano" snm="Pno."
V:1
 z4 z2 C2 | A3 G F2 G2 | A3 G F2 FG | A2 A2 c2 A2 | G4 z2 GA | B2 B2 d2 B2 | A2 A2 c2 AF | G4 c4 | %8
w: do|la sol fa sol|la sol fa fa sol|la la do la|sol sol la|si si re si|la la do la fa|sol do|
 A6 GA | B2 B2 d2 B2 | A2 A2 c2 AF | G4 c4 | F8 |] %13
w: la sol la|si si re si|la la do la fa|sol do|fa|

